img/2.svg

<svg width="65" height="89" viewBox="0 0 65 89" fill="none" xmlns="http://www.w3.org/2000/svg">
<g clip-path="url(#clip0_104_34)">
<path d="M64.9999 72.6623V88.1859H4.33855V75.0505L32.281 45.6751C34.7488 42.8491 36.739 40.3215 38.2516 38.0925C39.7641 35.8236 40.8588 33.7737 41.5354 31.9427C42.2519 30.1118 42.6101 28.4599 42.6101 26.9871C42.6101 24.4795 42.232 22.3898 41.4757 20.718C40.7592 19.0064 39.6845 17.7128 38.2516 16.8371C36.8584 15.9614 35.127 15.5236 33.0572 15.5236C30.9874 15.5236 29.1763 16.1206 27.6239 17.3148C26.0716 18.5089 24.8575 20.1408 23.9818 22.2107C23.146 24.2805 22.728 26.609 22.728 29.1963H2.54736C2.54736 23.8625 3.84099 18.9865 6.42826 14.5683C9.05532 10.15 12.6974 6.62737 17.3545 4.00031C22.0115 1.33344 27.405 0 33.5348 0C39.9433 0 45.3168 0.995101 49.6554 2.9853C53.9941 4.97551 57.258 7.8613 59.4472 11.6427C61.6763 15.3843 62.7908 19.902 62.7908 25.196C62.7908 28.2211 62.3131 31.1268 61.3578 33.913C60.4025 36.6993 59.0293 39.4657 57.2381 42.2122C55.4469 44.9189 53.2577 47.7051 50.6704 50.571C48.123 53.4369 45.2173 56.4819 41.9534 59.7061L30.7286 72.6623H64.9999Z" fill="#CA0026"/>
<path d="M62.4525 72.6623V88.1859H1.79118V75.0505L29.7336 45.6751C32.2015 42.8491 34.1917 40.3215 35.7042 38.0925C37.2168 35.8236 38.3114 33.7737 38.9881 31.9427C39.7045 30.1118 40.0628 28.4599 40.0628 26.9871C40.0628 24.4795 39.6846 22.3898 38.9284 20.718C38.2119 19.0064 37.1372 17.7128 35.7042 16.8371C34.3111 15.9614 32.5796 15.5236 30.5098 15.5236C28.44 15.5236 26.6289 16.1206 25.0765 17.3148C23.5242 18.5089 22.3102 20.1408 21.4345 22.2107C20.5986 24.2805 20.1806 26.609 20.1806 29.1963H0C0 23.8625 1.29363 18.9865 3.88089 14.5683C6.50796 10.15 10.15 6.62737 14.8071 4.00031C19.4642 1.33344 24.8576 0 30.9874 0C37.3959 0 42.7694 0.995101 47.1081 2.9853C51.4467 4.97551 54.7107 7.8613 56.8999 11.6427C59.1289 15.3843 60.2434 19.902 60.2434 25.196C60.2434 28.2211 59.7658 31.1268 58.8105 33.913C57.8552 36.6993 56.4819 39.4657 54.6908 42.2122C52.8996 44.9189 50.7104 47.7051 48.1231 50.571C45.5756 53.4369 42.6699 56.4819 39.406 59.7061L28.1813 72.6623H62.4525Z" fill="url(#paint0_linear_104_34)"/>
</g>
<defs>
<linearGradient id="paint0_linear_104_34" x1="2.35219e-06" y1="88.1859" x2="103.057" y2="33.0461" gradientUnits="userSpaceOnUse">
<stop stop-color="#E5A440"/>
<stop offset="0.446563" stop-color="#EFC57B"/>
<stop offset="0.975811" stop-color="#E7AC4E"/>
</linearGradient>
<clipPath id="clip0_104_34">
<rect width="65" height="89" fill="white"/>
</clipPath>
</defs>
</svg>

<svg width="65" height="89" fill="none" xmlns="http://www.w3.org/2000/svg"><g clip-path="url(#a)"><path d="M65 72.662v15.524H4.339V75.05L32.28 45.675c2.468-2.826 4.458-5.353 5.97-7.582 1.513-2.27 2.608-4.32 3.284-6.15.717-1.831 1.075-3.483 1.075-4.956 0-2.507-.378-4.597-1.134-6.269-.717-1.712-1.791-3.005-3.224-3.88-1.394-.877-3.125-1.314-5.195-1.314-2.07 0-3.88.597-5.433 1.79-1.552 1.195-2.766 2.827-3.642 4.897-.836 2.07-1.254 4.398-1.254 6.985H2.548c0-5.334 1.293-10.21 3.88-14.628C9.055 10.15 12.698 6.628 17.355 4c4.657-2.667 10.05-4 16.18-4 6.408 0 11.782.995 16.12 2.985 4.34 1.99 7.603 4.876 9.792 8.658 2.23 3.741 3.344 8.259 3.344 13.553a26.7 26.7 0 0 1-1.433 8.717c-.955 2.786-2.329 5.553-4.12 8.3-1.791 2.706-3.98 5.492-6.568 8.358-2.547 2.866-5.453 5.91-8.717 9.135L30.73 72.662H65Z" fill="#CA0026"/><path d="M62.453 72.662v15.524H1.79V75.05l27.943-29.375c2.468-2.826 4.458-5.353 5.97-7.582 1.513-2.27 2.607-4.32 3.284-6.15.717-1.831 1.075-3.483 1.075-4.956 0-2.507-.378-4.597-1.135-6.269-.716-1.712-1.79-3.005-3.224-3.88-1.393-.877-3.124-1.314-5.194-1.314s-3.881.597-5.434 1.79c-1.552 1.195-2.766 2.827-3.642 4.897-.835 2.07-1.253 4.398-1.253 6.985H0c0-5.334 1.294-10.21 3.88-14.628C6.509 10.15 10.15 6.628 14.808 4c4.657-2.667 10.05-4 16.18-4 6.409 0 11.782.995 16.121 2.985 4.339 1.99 7.603 4.876 9.792 8.658 2.229 3.741 3.343 8.259 3.343 13.553 0 3.025-.477 5.93-1.433 8.717-.955 2.786-2.328 5.553-4.12 8.3-1.79 2.706-3.98 5.492-6.567 8.358-2.547 2.866-5.453 5.91-8.717 9.135L28.181 72.662h34.272Z" fill="url(#b)"/></g><defs><linearGradient id="b" x1="0" y1="88.186" x2="103.057" y2="33.046" gradientUnits="userSpaceOnUse"><stop stop-color="#E5A440"/><stop offset=".447" stop-color="#EFC57B"/><stop offset=".976" stop-color="#E7AC4E"/></linearGradient><clipPath id="a"><path fill="#fff" d="M0 0h65v89H0z"/></clipPath></defs></svg>
